src/4-icons/left.svg

<svg width="260" height="260" viewBox="0 0 260 260" fill="none" xmlns="http://www.w3.org/2000/svg">
<path d="M112.707 37.3056C114.775 37.305 116.798 37.9174 118.518 39.0655C120.239 40.2136 121.581 41.8458 122.375 43.7562C123.168 45.6665 123.378 47.7692 122.978 49.7987C122.577 51.8281 121.584 53.6933 120.124 55.1587L54.9787 120.104H231.181C233.8 120.104 236.312 121.144 238.164 122.996C240.017 124.849 241.057 127.361 241.057 129.98C241.057 132.599 240.017 135.111 238.164 136.963C236.312 138.816 233.8 139.856 231.181 139.856L54.9787 139.946L120.144 204.921C122.107 206.884 123.21 209.547 123.21 212.323C123.21 215.1 122.107 217.762 120.144 219.725C118.18 221.689 115.518 222.792 112.741 222.792C109.965 222.792 107.303 221.689 105.339 219.725L21.8115 136.727C20.909 135.834 20.1926 134.771 19.7037 133.599C19.2147 132.427 18.963 131.17 18.963 129.9C18.963 128.63 19.2147 127.373 19.7037 126.201C20.1926 125.029 20.909 123.966 21.8115 123.073L105.309 40.3544C106.283 39.394 107.437 38.6348 108.705 38.1202C109.972 37.6057 111.329 37.3459 112.697 37.3556L112.707 37.3056ZM112.697 29.3586C110.282 29.3569 107.892 29.832 105.662 30.7566C103.432 31.6812 101.406 33.0371 99.7015 34.7466L16.1936 117.385C14.5446 119.021 13.2359 120.968 12.3427 123.112C11.4496 125.257 10.9897 127.557 10.9897 129.88C10.9897 132.203 11.4496 134.503 12.3427 136.648C13.2359 138.792 14.5446 140.739 16.1936 142.375L99.7015 225.293C103.165 228.756 107.863 230.7 112.76 230.699C117.658 230.698 122.354 228.752 125.816 225.288C129.279 221.825 131.223 217.127 131.223 212.23C131.222 207.332 129.275 202.636 125.811 199.173L74.3013 147.943H231.161C235.901 147.943 240.447 146.06 243.799 142.708C247.151 139.356 249.034 134.81 249.034 130.07C249.034 125.33 247.151 120.784 243.799 117.432C240.447 114.08 235.901 112.197 231.161 112.197H74.3013L125.771 60.9065C128.351 58.3233 130.106 55.0335 130.816 51.4529C131.526 47.8723 131.159 44.1616 129.761 40.7896C128.363 37.4177 125.996 34.5359 122.961 32.5084C119.925 30.4809 116.357 29.3987 112.707 29.3986L112.697 29.3586Z" fill="black"/>
</svg>

<svg width="260" height="260" fill="none" xmlns="http://www.w3.org/2000/svg"><path d="M112.707 37.306a10.463 10.463 0 0 1 9.668 6.45 10.47 10.47 0 0 1-2.251 11.403l-65.145 64.945H231.18a9.875 9.875 0 1 1 0 19.752l-176.202.09 65.165 64.975a10.469 10.469 0 1 1-14.805 14.804L21.81 136.727a9.6 9.6 0 0 1-2.848-6.827 9.605 9.605 0 0 1 2.848-6.827l83.498-82.719a10.415 10.415 0 0 1 7.388-2.998l.01-.05Zm-.01-7.947a18.332 18.332 0 0 0-12.996 5.388l-83.507 82.638a17.604 17.604 0 0 0 0 24.99L99.7 225.293a18.464 18.464 0 0 0 26.115-.005 18.467 18.467 0 0 0-.005-26.115l-51.51-51.23h156.86a17.873 17.873 0 0 0 0-35.746H74.301l51.47-51.29a18.457 18.457 0 0 0 3.99-20.117 18.465 18.465 0 0 0-17.054-11.391l-.01-.04Z" fill="#000"/></svg>
